build/img/icon/advantages-4.svg

<svg xmlns="http://www.w3.org/2000/svg" width="512" height="512" fill="none"><g clip-path="url(#clip0)"><path d="M419.733 453.059v50.408a8.534 8.534 0 01-17.066 0v-50.408c0-23.626-11.707-45.641-31.315-58.887a8.533 8.533 0 01-2.293-11.848 8.531 8.531 0 0111.848-2.293c24.312 16.423 38.826 43.724 38.826 73.028zm18.134-243.992V316.8a8.533 8.533 0 01-8.534 8.533H411.2c-22.267 0-43.208-9.832-57.453-26.974-3.011-3.624-2.514-9.004 1.109-12.018a8.538 8.538 0 0112.019 1.11c10.991 13.23 27.147 20.816 44.325 20.816h9.6v-99.2c0-20.014-14.208-36.769-33.067-40.716v30.404a8.534 8.534 0 01-17.066 0V115.2c0-54.11-44.023-98.133-98.134-98.133h-51.195c-54.114 0-98.138 44.023-98.138 98.137v83.551c0 6.915 3.893 12.934 9.6 15.992v-50.48a8.534 8.534 0 0117.067 0v59.866c0 53.524 43.543 97.067 97.066 97.067S344 277.657 344 224.133v-51.087c-20.582-1.169-38.443-14.032-44.804-37.912a292.5 292.5 0 01-57.883 28.621c-28.791 10.456-57.298 14.81-60.466 14.81a8.534 8.534 0 01-1.173-16.985c43.561-6.099 84.903-22.462 120.995-48.011 5.661-4.007 13.508.079 13.463 7.02-.001.211.079 21.375 16.132 31.032 10.612 6.384 20.718 3.874 23.288 4.18a8.51 8.51 0 017.221 6.283c.423 1.602.292-2.159.292 62.699 0 74.211-72.52 130.582-146.314 108.856-.813 10.307-4.595 20.002-10.935 28.103l43.116 32.863 22.743-17.336a8.533 8.533 0 0111.959 1.614c2.858 3.748 2.134 9.102-1.614 11.96-29.356 22.376-27.964 21.398-28.97 21.952a8.496 8.496 0 01-6.872.613c-1.885-.639 1.961 2.052-53.111-39.924a52.177 52.177 0 01-17.736 7.39V419.3c13.514 3.745 23.467 16.146 23.467 30.836 0 17.644-14.355 32-32 32s-32-14.356-32-32c0-14.69 9.953-27.091 23.466-30.836v-36.985c-36.013 2.966-65.066 33.072-65.066 70.746v50.406a8.534 8.534 0 01-17.067 0v-50.408c0-48.68 39.392-88.076 88.076-88.076 19.749 0 35.657-15.985 35.657-35.564v-2.248c-35.921-17.175-61.511-52.596-64.717-94.186-15.475-3.701-27.016-17.639-27.016-34.23v-83.551C106.133 51.68 157.814 0 221.338 0h51.195c63.522 0 115.2 51.678 115.2 115.2v35.827c28.318 4.146 50.134 28.589 50.134 58.04zM164.8 435.2c-8.235 0-14.933 6.699-14.933 14.933 0 8.235 6.698 14.934 14.933 14.934s14.933-6.699 14.933-14.934c0-8.234-6.698-14.933-14.933-14.933zm172.8-16.258c0-48.745.191-46.32-.451-48.227a8.526 8.526 0 00-7.505-5.782c-12.629-.905-22.667-7.512-28.488-17.071a8.534 8.534 0 00-14.577 8.877 52.724 52.724 0 0033.954 24.109v38.094C299.308 422.954 283.2 441.627 283.2 464v39.467a8.534 8.534 0 0017.067 0V464c0-15.881 12.919-28.8 28.8-28.8 15.88 0 28.8 12.919 28.8 28.8v39.467a8.533 8.533 0 0017.066 0V464c0-22.374-16.107-41.046-37.333-45.058z" fill="#2A47B6"/></g><defs><clipPath id="clip0"><path fill="#fff" d="M0 0h512v512H0z"/></clipPath></defs></svg>

<?xml version="1.0" encoding="UTF-8"?> <svg xmlns="http://www.w3.org/2000/svg" width="512" height="512" viewBox="0 0 512 512" fill="none"> <g clip-path="url(#clip0)"> <path d="M419.733 453.059V503.467C419.733 508.179 415.912 512 411.2 512C406.487 512 402.667 508.179 402.667 503.467V453.059C402.667 429.433 390.96 407.418 371.352 394.172C367.447 391.534 366.42 386.229 369.059 382.324C371.698 378.418 377.002 377.391 380.907 380.031C405.219 396.454 419.733 423.755 419.733 453.059ZM437.867 209.067V316.8C437.867 321.513 434.046 325.333 429.333 325.333H411.2C388.933 325.333 367.992 315.501 353.747 298.359C350.736 294.735 351.233 289.355 354.856 286.341C358.48 283.331 363.86 283.826 366.875 287.451C377.866 300.681 394.022 308.267 411.2 308.267H420.8V209.067C420.8 189.053 406.592 172.298 387.733 168.351V198.755C387.733 203.468 383.912 207.289 379.2 207.289C374.487 207.289 370.667 203.468 370.667 198.755V115.2C370.667 61.0891 326.644 17.0667 272.533 17.0667H221.338C167.224 17.0667 123.2 61.0901 123.2 115.204V198.755C123.2 205.67 127.093 211.689 132.8 214.747V164.267C132.8 159.554 136.621 155.733 141.333 155.733C146.046 155.733 149.867 159.554 149.867 164.267V224.133C149.867 277.657 193.41 321.2 246.933 321.2C300.456 321.2 344 277.657 344 224.133V173.046C323.418 171.877 305.557 159.014 299.196 135.134C280.995 146.79 261.579 156.395 241.313 163.755C212.522 174.211 184.015 178.565 180.847 178.565C176.659 178.565 173.004 175.479 172.406 171.214C171.754 166.546 175.007 162.233 179.674 161.58C223.235 155.481 264.577 139.118 300.669 113.569C306.33 109.562 314.177 113.648 314.132 120.589C314.131 120.8 314.211 141.964 330.264 151.621C340.876 158.005 350.982 155.495 353.552 155.801C356.991 156.206 359.874 158.681 360.773 162.084C361.196 163.686 361.065 159.925 361.065 224.783C361.065 298.994 288.545 355.365 214.751 333.639C213.938 343.946 210.156 353.641 203.816 361.742L246.932 394.605L269.675 377.269C273.424 374.412 278.778 375.136 281.634 378.883C284.492 382.631 283.768 387.985 280.02 390.843C250.664 413.219 252.056 412.241 251.05 412.795C248.999 413.931 246.5 414.207 244.178 413.408C242.293 412.769 246.139 415.46 191.067 373.484C185.655 377.029 179.66 379.524 173.331 380.874V419.3C186.845 423.045 196.798 435.446 196.798 450.136C196.798 467.78 182.443 482.136 164.798 482.136C147.153 482.136 132.798 467.78 132.798 450.136C132.798 435.446 142.751 423.045 156.264 419.3V382.315C120.251 385.281 91.1978 415.387 91.1978 453.061V503.467C91.1978 508.179 87.377 512 82.6644 512C77.9519 512 74.1311 508.179 74.1311 503.467V453.059C74.1311 404.379 113.523 364.983 162.207 364.983C181.956 364.983 197.864 348.998 197.864 329.419V327.171C161.943 309.996 136.353 274.575 133.147 232.985C117.672 229.284 106.131 215.346 106.131 198.755V115.204C106.133 51.68 157.814 0 221.338 0H272.533C336.055 0 387.733 51.6779 387.733 115.2V151.027C416.051 155.173 437.867 179.616 437.867 209.067V209.067ZM164.8 435.2C156.565 435.2 149.867 441.899 149.867 450.133C149.867 458.368 156.565 465.067 164.8 465.067C173.035 465.067 179.733 458.368 179.733 450.133C179.733 441.899 173.035 435.2 164.8 435.2ZM337.6 418.942C337.6 370.197 337.791 372.622 337.149 370.715C336.079 367.542 333.185 365.173 329.644 364.933C317.015 364.028 306.977 357.421 301.156 347.862C298.704 343.837 293.454 342.561 289.429 345.012C285.405 347.465 284.128 352.715 286.579 356.739C294.168 369.2 306.507 377.832 320.533 380.848V418.942C299.308 422.954 283.2 441.627 283.2 464V503.467C283.2 508.179 287.021 512 291.733 512C296.446 512 300.267 508.179 300.267 503.467V464C300.267 448.119 313.186 435.2 329.067 435.2C344.947 435.2 357.867 448.119 357.867 464V503.467C357.867 508.179 361.687 512 366.4 512C371.112 512 374.933 508.179 374.933 503.467V464C374.933 441.626 358.826 422.954 337.6 418.942V418.942Z" fill="#2A47B6"></path> </g> <defs> <clipPath id="clip0"> <rect width="512" height="512" fill="white"></rect> </clipPath> </defs> </svg>
